X:1034
T:Chandelier, The
R:reel
C:Liz Carroll
D:Mike McGoldrick & John McSherry: At First Light
D:Peter Carberry, Angelina Carberry, John Blake: Memories from the Holla
Z:id:hn-reel-1034
M:C|
L:1/8
K:D
D2~D2 ADFG | A2FA dfed | Bg~g2 gfed | (3cBA ed cAGE |
D2~D2 ADFG | A2FA dfed | cAAB cAed |1 cAGE ~F3E :|2 cAGE FABc ||
|: dfbf afeg | ~f3d eABc | dfbf afeg | fedB cdeg |
~f3e de (3fed | eA~A2 ABcA | B2GF GBdB |1 AFEG FABc :|2 AFEG F3E ||
P:variations
|: D2FD ADFG | AdFA dfed | Bggf gfed | cAed cAGE |
D2 (3FED ADFG | AdFA dfed | cA~A2 cded |1 cAGE ~F3E :|2 cAGE FABc ||
|: dfbf afeg | fedf eABc | dfbf afeg | fedB cdeg |
f2fe defd | eAAG ABcA | BAGF GBdB |1 AFEG FABc :|2 AFEG F3E ||

